T: Donnie Nolan's
M: 4/4
L: 1/8
K: Gmaj
B2 BA BAGA | B2 BA BAGA | Bdde dBGA | BAAG A2 BA |GABd g2 gd | egdB A2 GA | Bdde dBAB | G2 GF G2 :|afdB dega | bagb a2 ba | g2 ga gedB | BAAG A2 BA|GABd g2 gd | egdB A2 GA | Bdde dBAB | G2 GF G2 :|
